src/img/success.svg

<svg width="28" height="27" fill="none" xmlns="http://www.w3.org/2000/svg">
  <path d="M14 0C6.27993 0 0 6.05565 0 13.5C0 20.9444 6.27993 27 14 27C21.7201 27 28 20.9433 28 13.5C28 6.0567 21.7201 0 14 0ZM14 24.9086C7.47715 24.9086 2.16885 19.7909 2.16885 13.5C2.16885 7.20905 7.47715 2.09139 14 2.09139C20.5239 2.09139 25.8311 7.20905 25.8311 13.5C25.8311 19.7909 20.5229 24.9086 14 24.9086Z" fill="url(#paint0_linear)"/>
  <path d="M20.4229 8.80529C19.9815 8.41838 19.2951 8.4487 18.8917 8.87638L12.2767 15.9004L9.08085 12.7675C8.65899 12.3555 7.97365 12.3492 7.54747 12.7549C7.12019 13.1596 7.11368 13.8215 7.53445 14.2336L11.5349 18.1549C11.7399 18.3557 12.0175 18.4676 12.3081 18.4676C12.3146 18.4676 12.3222 18.4676 12.3287 18.4687C12.628 18.4624 12.91 18.339 13.1106 18.1257L20.4966 10.2829C20.899 9.85412 20.8664 9.19326 20.4229 8.80529Z" fill="url(#paint1_linear)"/>
  <defs>
    <linearGradient id="paint0_linear" x1="7.2" y1="5.4" x2="24.1" y2="27.6" gradientUnits="userSpaceOnUse">
      <stop stop-color="#FFD44D"/>
      <stop offset="1" stop-color="#FF844D"/>
    </linearGradient>
    <linearGradient id="paint1_linear" x1="10.7" y1="10.5" x2="16.3" y2="20.2" gradientUnits="userSpaceOnUse">
      <stop stop-color="#FFD44D"/>
      <stop offset="1" stop-color="#FF844D"/>
    </linearGradient>
  </defs>
</svg>

<svg width="28" height="27" fill="none" xmlns="http://www.w3.org/2000/svg"><path d="M14 0C6.28 0 0 6.056 0 13.5S6.28 27 14 27s14-6.057 14-13.5S21.72 0 14 0zm0 24.909c-6.523 0-11.831-5.118-11.831-11.409C2.169 7.21 7.477 2.091 14 2.091c6.524 0 11.831 5.118 11.831 11.409 0 6.29-5.308 11.409-11.831 11.409z" fill="url(#paint0_linear)"/><path d="M20.423 8.805a1.113 1.113 0 00-1.531.071L12.277 15.9 9.08 12.767a1.112 1.112 0 00-1.534-.012 1.018 1.018 0 00-.013 1.479l4 3.92a1.103 1.103 0 00.795.315c.299-.007.581-.13.782-.343l7.386-7.843a1.02 1.02 0 00-.074-1.478z" fill="url(#paint1_linear)"/><defs><linearGradient id="paint0_linear" x1="7.2" y1="5.4" x2="24.1" y2="27.6" gradientUnits="userSpaceOnUse"><stop stop-color="#FFD44D"/><stop offset="1" stop-color="#FF844D"/></linearGradient><linearGradient id="paint1_linear" x1="10.7" y1="10.5" x2="16.3" y2="20.2" gradientUnits="userSpaceOnUse"><stop stop-color="#FFD44D"/><stop offset="1" stop-color="#FF844D"/></linearGradient></defs></svg>
